X:2
T:The Heights of Dargai
C:J.Wallace
B:Scots Guards #399 p.228
R:Retreat march
S:Jack Campin <jc@purr.demon.co.uk> abcusers 2001-12-14
M:9/8
L:1/8
P:ABAC DBDC
K:Hp
[P:A] e|A>Bc e3 c2e |f>df e3 c3|[P:B] a>gf e3 A>ce|f>ec B3 B2|]
[P:D] B|A>Be f3 f>df|a>gf e3 c3|[P:C] a>gf e3 B2e |c>Bc A3 A2|]
